outputs/icons/social/happy_sharp.svg

<svg xmlns="http://www.w3.org/2000/svg" width="1200" height="1200" fill="none"><g clip-path="url(#a)"><path fill="#000" d="M599.5 100C323.5 100 100 324 100 600s223.5 500 499.5 500C876 1100 1100 876 1100 600S876 100 599.5 100m.5 900c-221 0-400-179-400-400s179-400 400-400 400 179 400 400-179 400-400 400m175-450c41.5 0 75-33.5 75-75s-33.5-75-75-75-75 33.5-75 75 33.5 75 75 75m-350 0c41.5 0 75-33.5 75-75s-33.5-75-75-75-75 33.5-75 75 33.5 75 75 75m175 325c116.5 0 215.5-73 255.5-175h-511c40 102 139 175 255.5 175"/></g><defs><clipPath id="a"><path fill="#fff" d="M0 0h1200v1200H0z"/></clipPath></defs></svg>

<svg width="1200" height="1200" viewBox="0 0 1200 1200" fill="none" xmlns="http://www.w3.org/2000/svg"><g clip-path="url(#clip0_133_577)"><path d="M599.5 100C323.5 100 100 324 100 600C100 876 323.5 1100 599.5 1100C876 1100 1100 876 1100 600C1100 324 876 100 599.5 100ZM600 1000C379 1000 200 821 200 600C200 379 379 200 600 200C821 200 1000 379 1000 600C1000 821 821 1000 600 1000ZM775 550C816.5 550 850 516.5 850 475C850 433.5 816.5 400 775 400C733.5 400 700 433.5 700 475C700 516.5 733.5 550 775 550ZM425 550C466.5 550 500 516.5 500 475C500 433.5 466.5 400 425 400C383.5 400 350 433.5 350 475C350 516.5 383.5 550 425 550ZM600 875C716.5 875 815.5 802 855.5 700H344.5C384.5 802 483.5 875 600 875Z" fill="black"/></g><defs><clipPath id="clip0_133_577"><path width="24" fill="white" d="M0 0H1200V1200H0V0z"/></clipPath></defs></svg>
